X:30
T:Valse cossaise
R:Valse
O:
Z:<anamnese@laposte.net>
M:3/4
L:1/4
Q:1/4=212
K:C
P:A
B |: e2d | c2d | ABc | G2G |1 e2d | c2B | ABc | def :|2 Adc | Bed | cB/A/ e/d/ | c |
G |: e2G | e2G | egz/e/|c2G|1 d2G | d2G | de/d/ c/d/ | ecG :|2 Adc | Bed | cB/c/ e/d/ | c2 
P:B
|: cde | cde | fed | cBA | GAB | GAB | ced |1 cBA :|2 c3 |
|: BAG | B2B | AGF | A3 | ABc | ABc | edc | BAG :|
P:C
|: A2A | c2c | BGG | GAB | A2A | a2a | gee | e2 f |
g/e/ ce | g2 f/e/ | dec | BAG | efg | e2d | cdB | A2 :|
